X:1
T:Title
%%score [ ( 1 2 ) ( 3 4 ) ]
L:1/8
Q:1/4=120
M:none
K:A
V:1 treble nm=" "
V:2 treble 
V:3 bass nm="Midi_74"
V:4 bass 
V:1
 E8 | A4 F4 | G8 || E8 | A4 c4 | c4 B4"^Thomas Saunders Dupuis\n(1733-1796)" | A8 | %7
V:2
 C8 | E4 ^D4 | E8 || E8 | E4 E4 | E4 E2 D2 | C8 | %7
V:3
 A,8 | C4 B,4 | B,8 || G,8 | A,4 A,4 | A,4 G,4 | A,8 | %7
V:4
 A,8 | F,4 B,,4 | E,8 || E,8 | C,4 A,,4 | E,4 E,4 | A,,8 | %7

